!!!COM:	Josquin des Prez?
**kern	**kern
*part2	*part1
*staff2	*staff1
*clefF4	*clefGv2
*k[]	*k[]
*M2/1	*M2/1
=1-	=1-
0r	0E
=2	=2
0AA	1E
.	[1A
=3	=3
1AA	1A]
[1D	1A
=4	=4
1D]	2B
.	1A
1D	.
.	4G
.	4F
=5	=5
2E	2G
1D	2A
.	1D
4C	.
4BB	.
=6	=6
2C	2r
2D	1D
1GG	.
.	2E
=7	=7
2r	2D
1GG	1G
2AA	2F
=8	=8
2GG	1G
1C	.
.	2r
2BB	[2G
=9	=9
1C	2G]
.	2A
2r	2G
[2C	[2c
=10	=10
2C]	2c]
2D	2B
2C	2c
[2F	2A
=11	=11
2F]	1G
2E	.
2F	2A
2D	[2B
=12	=12
2C	2B]
4BB	1A
4AA	.
1BB	.
.	2G
=13	=13
0AA	1A
.	2r
.	[2A
=14	=14
2r	4A]
.	4B
2.AA	2.c
4BB	4B
[2C	4A
.	4G
=15	=15
4C]	2A
4BB	.
4AA	1G
4GG	.
1AA	.
.	2F
=16	=16
1GG	1G
[1C	2r
.	[2G
=17	=17
1C]	2G]
.	2A
2.C	2G
.	[2c
4D	.
=18	=18
1E	2c]
.	2.B
2r	.
.	4A
[2E	4G
.	4F
=19	=19
4E]	1E
4D	.
4C	.
4BB	.
2C	2r
2D	[2B
=20	=20
1AA	2B]
.	1A
1BB	.
.	2G
=21	=21
1AA	2A
.	2c
2r	2B
2AA	[2A
=22	=22
1C	4A]
.	8GL
.	8FJ
.	2.E
4C	.
4D	4F
4E	2G
4F	.
=23	=23
2G	2.C
2.C	.
.	4D
.	4E
4D	4F
4E	[2G
4F	.
=24	=24
2.E	4G]
.	4A
.	4B
8DL	4c
8CJ	.
2BB	2d
2C	[2c
=25	=25
1D	2c]
.	2B
[1C	1c
=26	=26
1C]	2r
.	2G
2r	2A
2C	2c
=27	=27
2D	1B
2E	.
2F	[1A
4E	.
4D	.
=28	=28
2C	1A]
2.F	.
.	2G
4E	.
[2E	2E
=29	=29
2E]	1F
2D	.
1E	1E
==	==
*-	*-
